material/.icons/material/credit-card-clock-outline.svg

<svg xmlns="http://www.w3.org/2000/svg" viewBox="0 0 24 24"><path d="M16 14h1.5v2.82l2.44 1.41-.75 1.3L16 17.69V14m8 3a7 7 0 01-7 7c-2.79 0-5.2-1.64-6.33-4H4a2 2 0 01-2-2V6c0-1.11.89-2 2-2h16a2 2 0 012 2v6.1c1.24 1.26 2 2.99 2 4.9m-14 0c0-1.96.81-3.73 2.1-5H4v6h6.07c-.07-.33-.07-.66-.07-1m7-5a5 5 0 00-5 5 5 5 0 005 5 5 5 0 005-5 5 5 0 00-5-5m3-4V6H4v2h16z"/></svg>

<?xml version="1.0" encoding="UTF-8"?><!DOCTYPE svg PUBLIC "-//W3C//DTD SVG 1.1//EN" "http://www.w3.org/Graphics/SVG/1.1/DTD/svg11.dtd"><svg xmlns="http://www.w3.org/2000/svg" xmlns:xlink="http://www.w3.org/1999/xlink" version="1.1" id="mdi-credit-card-clock-outline" width="24" height="24" viewBox="0 0 24 24"><path d="M16,14H17.5V16.82L19.94,18.23L19.19,19.53L16,17.69V14M24,17A7,7 0 0,1 17,24C14.21,24 11.8,22.36 10.67,20H4C2.89,20 2,19.1 2,18V6C2,4.89 2.89,4 4,4H20A2,2 0 0,1 22,6V12.1C23.24,13.36 24,15.09 24,17M10,17C10,15.04 10.81,13.27 12.1,12H4V18H10.07C10,17.67 10,17.34 10,17M17,12A5,5 0 0,0 12,17A5,5 0 0,0 17,22A5,5 0 0,0 22,17A5,5 0 0,0 17,12M20,8V6H4V8H20Z" /></svg>
